-----BEGIN PGP MESSAGE-----

wy4ECQMIFbp2hCTpiCn/WkLBD34B20nWHsgAKcRBXmbpyU3ZCJc5YJScnK3BHeN1
0sGkAY9beMW/7ByIyqpsj7n2k0ARfP2/380lC7L3IAKE+XSMSljX+Ljjkvilg4mM
yi7Wl2lAiZiejiBW4rcdPD9KJgdpKhVzJ5OTafZ7Uc+n1VMDfx+wyVJ0XMaA31pf
P89r+vZX62BEn+Ju15BKVGofMgH+yLQsYmGRZa/driu/jLE51VzrvO5gR0sDstMW
+rwhZ4st4JdEDxAVWkz8rYpeqXsCK5Bu5oOzW0mlkrZ6wpl2sV1uJVSFjeqZEQQR
VCesJF0nWxYx1uL/qFBl1SbwmV7MXi+WF+QtTCmJjAhJ7tpgIm3TKyQDWYeT0WiX
i9zUKeL/yIc8li6yN5HXwoTehElPoC3z6lNun9SBQKVAD6MPjOb5zlO6ZWZhIYZE
rRMTg5rkuiOwjEGiZsrPP+DBoAzD5dDoijK7FMN+N4pvoeDeewQJiIKZM8YOuaZD
Z3aOWmEGhP57E+RtqWl8++e4Yp8L0QZu4tEHKbsp8eN6Dk/QVVJMZgyLoJyX9ZqK
fcQ6JRRt1G/SszTfafvSXpmRa/7brre53DJjchWRPmVTMH12u2nPU7+wca+t0OMw
ETxTz7BQiPDO56XikymsiwDnNNCh5lrTexcUibXvJDkAViHnWa2Xjg4dOQcJMrYS
XiWmAVNiZ3fSzARSw6VHN/bWHBM+l2bs/jUZ5T8VEZf7f1Efzsjky68FkzNlG1QJ
q5yDFXs85YJZsfMDakaQbN6ZK5erIwMxXQHcpd47+FtX8TzN8WnR5prJrFH88zSt
y08E7eP8phOr1dX7GgJ+AEh4u4zkYLDhidrqj+zyc+dZ1/4w456+
=VzcI
-----END PGP MESSAGE-----
