-----BEGIN PGP MESSAGE-----

wy4ECQMI0iE7PItdUKv/SCrp7o+LzaT2VQavlnJ5nLHT7CB23JQRhusti1TwoXGw
0sS/AZYyhJCfe8pRaluPV+BP5aGdF8M1fBJE1rpkj3YaVoZ1co6CQ+Ixr9SbHhLi
aq+zsw+aLjvC2xhxXeCdtAyjTZCr0Zkm3fL3+I1NG2C3NkEw+xAHqU68Ls8v31Qj
kpVvhWc1ho7cGB56U1GZpTZo7KXLoi3xeb/plXEq1fmXPmLS6iSv1FQgsiY8+DQm
tucPeSn6EvY3STS6kgDzBNfS8dbOQ+EaRnZR3lYEANj8LGLqw/JMuL99xh/3z5nr
bNab7a+zIpQsse8MvY8QjGOAQRfqNC46wfxOGqfR1MQ1haUF2ND2mZ9Q6BrjQJdw
clICVHnqBqYEV8Xd/e1GmiBOF47iUD9O9kfmv4Z6WDnTQcUCz+NtkyE1XZ7cCARq
zgIPumU0H0V7mw6V355XcE2OgIj7HHFS8IiJgQ0AQM35Pe4IIP20Wf4ozUr29TF+
0QTI/WbIO3RaqG5BjeCi6tJoBuStURB55E5/JzzyJGqv39YXei74jMFOQGZJIETB
nGNrIoKKOmBl59pYfZj9Ui/imD18ohXJyHdQe9BAczElivde4fPeipfPvXHhJdKu
1YVO5O9kkh12sTsEDdp95+dWITuEp+H2qD3UVV6tD5Bc1moSglpwKq4u4tBdbzEb
kRkv2hbfZ3L9uGU+FZTIYsVWww+/CXBSC7jM+X8CQUjYXJtoMdouYnI8OF1oibTu
BX0ha7TpN1j8QE3Ss3jehFxP2OIOp3NXb5s3tcWtl4ROJI6DL52tYsWystJYdBv/
kw3ND5qG1uUkI3CiAA/zek9rywzkkvftRHKnMDXUislYkhot8jW3PAoRFrwCHqy0
TnkF+sCkkIqpA+M3QtZIqeqsDn+is0VFpCJhZF9j20WhDwzJcKLfC1FN8X/CG3LT
Cz8FoTZ5yD3HFFi0uMr8w2vwr8lK0QfnLB1rpw0VV04sF1sM6VPHtVDcI3/x2ggb
IakffJntIJKvfdy2OMG2P+q2Tl2dQlNrQ4mBEuRpekbsVpO/Z+ShIQTWN//mXO2q
S/5Q67fHWTjlLtRePEYl9JapV3x5V8z6rOjW4X9XkMeI9j/PqTiA3gJcYlGpfBu5
7GC9fb9p9EFp37QRohmZbHt3u3HrlPP4BpRDzeKTEQKPScOFN6Ioo4713P4mlLp7
2r+LzT1EA1CUHuftmReiuE8QnOlxvdcNQabCMeQq71AnTn1ZrwFmMyBU9rn9gWYf
5N/wUH24J0XsSXQB9Jgorq68FjdTkGb+nXUlbxWzeeyZUCEROhlzTcK/vGd/G/JT
+hVhZS1kNC/v6D4sYhADowjpL5FLuW7/3HNZ/zMu/xMCTAb72ThVup3J3yNg6+XO
GN3jQOGfd/+g00A15XcPAStOhTmr2pr7oB8FgfYL+waeZ/lH8wlzblacIuXSn2KL
KoYoDJVTz2BMplkqLKtMHeUkLYiJA1le0prtvDabNaY9vOq464O/PKY2B8s+qZzB
/rzxYGFjurUd5kIWFJIykOfQxEkv208fT1P76Hayz+TFNLDzzCJ6Dm3bjK8ydamY
seAdM10XqcMDoDaO5jz+KJVkvxzJEkMM6V//GamR/l4AUEw4Qh1DdlWp47Mc5+Vq
UTA2yQhgFZC2ueudPk/hU5YA2/38quES5xRm7nGPoDjObjYEbtU0jKPlYu1MpooF
nxGC0TFiZdMad48wiPPYPT/FK+9aSifAaD+WTGb9TcgiEIQgrBQ//yFP2A0WFBZ/
R41NIrJ15FZKULdPR+Gyx4xzb/Z4QRciu9884sHKHLrkjRmm1pkIQQiYtv7cpLB2
ym9tIbXRoEmdeUNmyMFF9DN/8cZGXWVxqGd6s4rT0Jn67A7K4S33O93sUXyDTMuI
t4+oMmXPWI4n7vLQ3abHjFJF
=66Wj
-----END PGP MESSAGE-----
