-----BEGIN PGP MESSAGE-----

wy4ECQMIWxEunp34Xn//qbJYzILSGcGhYfGyER3svEdH1X5zRy3IPKCrBKJDHUGe
0sIQAWxrJFeThPzeJQATrS38liJB+OPL7Krsm9w64/qEGiaeiG/4zqFZIjfNlyeK
W2oqFG0vVpjxcCJlu3PP7utnjW+4BGdIaOLXLF/kSEO5TXP2GFtJOUiURaHcJw2j
n90AEjNzOIrYjj2pzgVDkK0uanGWiruRmdSMvjsGbi3b9aYvrF9M97B1oqDl9TRx
oUCVpWIruoqIrYIBfMi4HxB4UuV4iX5vRHxJF+61Y1KPnLRFRBo4gIS5j2BJfkbT
uyATqr9yxlxJ1HhFntDEUGMk30Hz5d6fGcu4vz8e3oJ/eusqpOeVuFIIdODCBoNs
QiLj3w+c04VHmpG9zPE8cKxPUjlAB5WSOfz6GvnIhS5g6gHUuiNlM2QqyH8Y/C4X
LBb5I9x5z50tfxeCEjfgJo7csAAqXhr18ZqmcEACAOii5BBvv9wodle+8tHAlNAj
Gn4jloOLfaEPNf3QcsyOaIAsscgwN9leZl6N+D2AnFjPnk34nlC2zknwYUOoib96
ZXntT1j3DYeb263uB5CPxXqGNvTdsuz3LmfL7YoZJ8+EZk2rfogKCGE3knonThqm
AhQk8MePk4WhvYeyqXt1xCKmFEN/RqThlzG5GQNRHvpuWnWpAfvZzG6BoHDHghle
x5I4JKz8baPaREwCfK1iyrobohJrphRd2H4uKiqPQLbK9RTm+JLt45GroxjRjxO6
YBew7RiddqjtHOwTeHdLapAXr+Nmvlf+FXrz8+MZ0BWPzKul3/pgQH8FGIa3bvWf
qxkbVKkeWkFHv7RHXhRhphVU4ZD/rMYYhXR3+6ngJR8ZVXQY1u2GxIR80BUYLwKN
RkZ5q6edf8JcaM6NOKffcVY9K/Rl6EYK54hwFS8ZnlxtjPVhNp/TihSyyLxL0cjb
RQIMfb5cnYGfSlTZxnHkk3RrXhidG6+wmuXIHvqcV/0Zeb37xPMg6zQISoVpBCTX
Ud/w
=H9EN
-----END PGP MESSAGE-----
