-----BEGIN PGP MESSAGE-----

wy4ECQMIjbRVDl/RlLX/qKGiyHLqq1j+GHmLdx3sdg4lYQpPZb36sUUHcEua7HSJ
0sJaASrRphTBCmzlJ6l3qW8ajbo4yMJyrZW2owKMMex4Vv0h79FenU/xdaH5PTAX
IgXfUBmejveOTBvWVwbEZ12fcf2NM3qrnya8fnJbScGWqFM801pLjJVF0zL6Onuj
h9MWAt0QYi+31krDRQYnXX3fbonjc40QpdzZ2MRt2bpBbruGtNjmNp7SYJgr7/Tb
/ZmeuUEVf2WB6SFQaw6Nr3lBxgJ6Gng4+pkTFf9ZvQhDrnj3vIQIutx7me9Mjv/k
jHbSdEFNC1Q6oK95fhJZoF6XpmmER/RurAUIR+KbxsuguXYrj3LrNDLgEyGr6tWD
zEF0Bkyn7xITWCcmsTKpZKaZzIxOfA19Ft8qbPA3JBYZI7SniAVd4kLN+xJFYxQR
gkGtgj7VDH6kgfw8uS9eDlVOqN3jJdeg13xHka+Lr7wSbZ8v+MFzjDTVkeKBq+TT
lGXF63/wBovFoyrWtzOkz77Tl+DES2TI7Xc/FeHT5Fc27RqdD0dVUpPwzKKP1XM+
5TJQQnnzOUpm8TwC6FrzWE+0neiNz8VE8OYgHtAeDLQWFTR9kmByx8DKR2pdj0mP
P4iVEuKzZx5ZMOxS6zBmzzL7QEeefqatAEvmp+8I/4CkaOy5LEmQL6nbgzcs9ln/
a+6ANwVjtaB0xu7lD7Fl0u5wmX8yInN+hXZIKc5pJEodgMqiTAv+i6xzbxqKZgGy
GgvA38LGyJkogz6rB0FIscai8xzrKExxBltoQW3rdJoxp9UYk9zfV5vAKR4aRGZS
tc3rR45PmQWNcdJWdAOje6C570MEkYnJeQPjX7QRukmZfj3Bann6wnGhWBpo9yDS
l7lf2m+KAfJj6CgrL98SEo0si0F46SJoR2UmLVKPrIEXF0TSisu26Wew62p/ZFkN
0IJcakUQ9PUvNBZY39ksfdhzPETF1pbmIAXJHlWDQnxPDy/ysnseUEQGyGDlECSF
4BWvpgxW4XDFGifthX597xrwFeTFtjZT/cY2u7yRZrItO6MG3HnrV7GwEmCejdU/
A5Gshe7ZeLkj7DLXQlw/xywNqQxEOw/tktqU8/A=
=Dnck
-----END PGP MESSAGE-----
