-----BEGIN PGP MESSAGE-----

wy4ECQMIf/HiXI8Un+z/BOj/RdKTiDu5Z9GOogxZUgXo+Ui8VFqc+6173UcZKDx4
0sHRAdlM8qBWhYgJkXzgBTVO12UNHEPnN0exbFy2GsBki4gXySfybcdeVTtMp4b0
N/YdLoyWU1rXeJ7wZd8FKcZFkU2ef//vx1APjBabgJFfkRyTxpMq9lCIW/EPciyE
SfrvP8ghApH7Uld3XiX/5qew5g+BFQDHgKUWSHUOnv3agP5gU/3BucHmWXZvMgE4
4HixHqBFP+xTZwPL8JirTgUWhjwpuwaIg9JrBT2QrIAdD6p8bCARM4OYdXDvDbfR
ItQmJYjTRtuFcXvRa4VKRMi/vWpurrQ4GiNz8TtemYiKhtVLKw8L0wg1LiMM0jXa
U2OQA3NzC7bU8eUeErDBC1ltcogymyGIp4z4bjEM9cuBcBU4XP6ZZlrpcCPOqwz2
rjItS1nIXxicms5wEfgTGxldFgsUeLe9cIt6RBW72yuXGycE4y/cZ+HjaJZ1YP3G
UQR8H4D3O233HU5xrZmwdf0JlbGisr/mx8XtZtwUDj4G6pQUq7GgAY0BR1PRhMIA
irp7AGuFJSssPPG/Nwg5pFGXK7yz5cNSPwoMOVXvCOvIGlEQAFAVeTxfaX7Fu2dt
i5IO/jTAP/1pu3Z6KLCDod7kVeUEdQw8bQUCXnWS3cNd5DqJPCdsY1oSlsY5lXvz
dBihwKR+2QF2m18lleIVTIIq+YmU8jDKytILTsVGn49BXIS+oiBvBbg6or2qm84I
KlXuG0J45eJPpTs9BiDZsgJ7mFCVtR9wd5uDLl2w/ATfBtqqlIv6hNv0aKlC4dYk
khfcQrQMirGGIFOq6+AikDflI+B89Pxvffu9/+3VnaOeYYIzYCKBgsHcW7npa4of
qPW+QAieXyC7FDp4QwdF4ffZIH+Vfl5Yhx35MUHSFWDXy8ts
=GQIS
-----END PGP MESSAGE-----
