-----BEGIN PGP MESSAGE-----

wy4ECQMIOKIG8RG/wR3/IKNCAhSdgjaX6pZid3CBepu8KrjgfCpk1qViLYHlxPma
0sDKAb+YJMwx0+XcXDbRrbWJBNS34A6+O3vsg9TRqFbvYShmOCaldPLoCqkD0/Ry
aVbG7JVIS4bvhGxIhHwG2VSfB6udAtDyeTdcSvOjKu5HlCxQKc5jvgANX9p0svJf
3G52QqFDxahNNYhuErdpZ1mL1zyuh2AggDeyAhyhBsq7E72czovLg08ty4Yh6avd
b7aYaiUZcv3IXPxsbyQ5y6f33bpvEZHhOwFg+7uBuaT7XDsnG6p41C12AH27IwxT
DKeHb6C9KGNvZgLUBF6Fn/OwoQ3zisbbQFib9SLe85iac4vDGkrsFevcSpj1lpqC
CBiTBipHAcPVDFs2lETP/vgKMmqo0c8aMCDFscxrQ5hZj9VQwKkR1M/b6C0YjkFI
sUn3qtl2CHxt2Lq0z5tx1nwbQ+FExo3wZObCLkf2BFCSfHpr+t3iAlDLRZqJyHlQ
STa0SaNdzR/eRbDVkEGRNakc4U6Etf7NLzE6jOLVHOj2et92wjJi/Q3U90lUzUNo
8pThHFMLr361rhpBDA==
=0OIg
-----END PGP MESSAGE-----
