-----BEGIN PGP MESSAGE-----

wy4ECQMI+iy5j8o7tn7/dWcBd2oYj5+qe26A0hA4933j7dnQgN6yaHpSlypwuvv1
0sNbAZ+R3BuLiqYMvPZkkoTnJPKqVqFKVwu643eFlSjN3vGm0LVxpN5cxgy3Lv0T
909KTXyffne6S5xcOLc+GHG086i4w11IMuo72OOsRScVWSQso129O63MfXUp3jI1
XsiN8GLQxukqRGlBtMAb8RE1aEre9BveZgPhzeBY72n8DapqTs5GMpBrfp1UJUkm
/btKmUuNwYXeUviPqffttjIelaYOeRqZk1bWIfpdhqgUi9EBY1b8dIEXNauQ9hbo
v75oZPK2sq29bDIFDVENDie9u3/GzXQYKjkAHP4w+fMo/dknexFi9F1SiBED33g2
TKDPMs1xY1FFLlzSy1sbywgB22KWImEUBa2Wm4YKKOK3ScrIVM/NTVZ1I2NH6MtP
BgRNiVs20gWGKhTDmTqtR8OQUWVWYIAO2blFWADt+S6cUWYBCzDu5azfCIs/1Y8I
setJLMhEZmsGualGimP7faOHHJIKBx3H9x/oQighKMb5tRIUBU766L7ASJ2Fcx+6
6qvhi7BuDHQxjmRcAu/As8G7eoxUK+Zkq4p813T2WzMxqqgZQj+mw1g2rQWH6Zo2
uE9P0IroVctH43oS40KLe3QW9J2XAlU3yeRoFCslkoG3hnUC3pgnBMQzqekWvlP3
pWu2XPmAV7sZGt5gv7rbkTvZCk51c+MDfJAAjjDwpgA3xgt6MuPUFMPKU9flyNeR
i0kTS+NoEU38yPGyk27uTVHv4G0V9A+xuHxRSyiKOMOvqOvK/W/lJ8mDmTkd0+5R
SSb1NwKGFm+ms0ZVJ1IZ2LfSU55eh1/0fs0/VOjBPKxUzDCZZ5Grk3PjhLIwZMJW
7joPsQJA7sC7eeWP2kpCoz88/UkEAgUEDPrma4z9XNJFXFwgqTAp+es0mY5xI0OF
qkilqmfzwMuw3KaiW8dC0nc7HVVr6uiPgpuuPY89o6xOki8daqa3C1Y+YhMrM8SH
Y+UNXBOoSf06svSA1Hw8xtlniWjLN5KkHOYbMQ6Vg1Y+hVRhhxqE+U38H3s5efG+
e3R0jEdMJ8G07dbSuZOMULnA1noFA2pQF2ll5lg9QlF4EwoHGAngxLaQhI7XEmQ7
v/Un0tn73dZJrq2oqdEJrLXgp4B5iK343C2Qqd9zf3RRl/vz0wYEIuLQO2OGnY8x
NrryBozyKA8m39wbsxVYl5A07z5k8QnVRDmvQ01G/4tXoETrt8LDoJ/RJ6vAPvph
39C7C0SR5RChPUC51aLyk1agpLWEnm+SP1VsksneqMFk+1rTUVTCTJ8Wx5o66OvE
i+bHDXDaZtSRhWP0Fj8GtqmLL8wUiRWy0QOh8VXSvt6H4y6bNtzochgJdOWIwFlI
/i1S8J6oHerno3cFs898xdKLmguMStTceSAd38THY1QChZ83c8Bhqd5F7+365A==
=PxiU
-----END PGP MESSAGE-----
